X: 51
T: No_144_Screech_Owl_Dance_Song_(d).krn
N: Derived from No_144_Screech_Owl_Dance_Song_(d).krn
%%abc-version 2.0
%%abcx-abcm2ps-target-version 5.9.1 (29 Sep 2008)
%%abc-creator hum2abc beta
%%abcx-conversion-date 2019/03/15 08:38:45
%%humdrum-veritas 930589018
%%humdrum-veritas-data 401366262
%%linebreak <none>
%%barnumbers 0
L: 1/8
M: 2/4
K: F clef=bass
[K:clef=bass][M:2/4]z2CC ]|:  
D3C | 
A,A,- A,C ||  
[M:3/4]G,/G,/G,-G,2-G,F, ||  
[M:2/4]D,F,- F,A, | 
F,/F,/F,- F,G, ||  
[M:3/4]F,F,F,2z2 ||  
[M:2/4]F,A, F,F, | 
A,2-A,B,/A,/ | 
G,3F, | 
D,D,- D,A, | 
F,/F,/F,- F,G, | 
F,F,z2 | 
z3G, | 
F,F, CC :|]  
[M:2/4]C2C2 ||  
[M:3/4]G,2F,2A,2 | 
G,4-G,F, ||  
[M:2/4]G,2F,2 | 
C,2C,2 | 
z3F, | 
F,E,F,2 | 
G,3F, | 
F,4 ||  
[M:3/4](G,F,)F,2F,2 ||  
[M:2/4]D2CC ||  
[M:3/4]C2B,2D2 ||  
[M:2/4]C4 | 
B,B,G,2 | 
z2F,2 | 
F,4 | 
C,C,F,2 ||  
[M:3/4](G,F,)F,2F,2 ||  
[M:2/4]C2G,G, ||  
[M:3/4]G,2F,2A,2 | 
G,4z2 ||  
[M:2/4]z F,F,2 ||  
[M:3/4]C,2C,2F,2 ||  
[M:2/4]F,4 ||  
[M:3/4](G,F,)F,2F,2 |]  



% FRACTION = 0.499634BUT SHOULD BE 0
% FRACTION = 0.499634BUT SHOULD BE 0
% FRACTION = 0.499634BUT SHOULD BE 0
